X: 1854
T: Süzül Güzel Süzül de Gel
C: Necdet Varol
O: Turkey
F: http://compmusic.upf.edu/node/140
N: nihavent--sarki--semai--suzul_guzel--necdet_varol
N: makam= nihavent
N: form= sarki
N: usul= semai = 3/4
M: 3/4
L: 1/16
K: C _B _e  
Q: 1/4=240
%%MIDI tuningsystem comma53
G4 d8  | d4 d8  | d4 f4 e4  | d12  | d2g2 f4 e4  | \
w:  Sü zül   |  gü zel   |  sü zül  de   |  gel    |  De li  gön lüm   | 
d8 c4  | d2c2 B4 c4  | d12  | G4 d8  | 
w:  bak  se  |  ni  *  *  is  |  ter    |  Sü zül   | 
d4 d8  | d4 f4 e4  | d12  | d2g2 f4 e4  | d8 c4  | \
w:  gü zel   |  sü zül  de   |  gel    |  De li  gön lüm   |  bak  se  | 
d2c2 B4 c4  | d12  | d4 b8  | b8 a4  | 
w:  ni  *  *  is  |  ter    |  Se nin  |  le  bü  | 
a8 g4  | g4 f8  | a4 g4 f4  | g2f2 e4 e2d2  | d12  | d12  | \
w:  tün  yol  |  lar   |  cen *  ne  |  te  *  *  gi  |  der    |   | 
d4 b8  | b8 a4  | a8 g4  | g4 f8  | 
w:  Se nin  |  le  bü  |  tün  yol  |  lar   | 
a4 g4 f4  | g2f2 e4 e2d2  | d12  | d12  | f12  | g12  | e12  | c12  | \
w:  cen *  ne  |  te  *  *  gi  |  der    |   |  Aş  |  kım  |  sın   |  gel   | 
B4 d8  | B2A2 G4 ^F4  | G12  | 
w:  ca nım  |  sın   |  gel    | 
d12  | d4 f8  | f4 e4 d4  | g8 f4  | e4 d4 c4  | \
w:   |  Bir  ta  |  nem   |  sev di  |  ğim   | 
B4 d8  | B2A2 G4 ^F4  | G12  | G12  | D4 G2G2 G2G2  | 
w:  gü ze  |  lim   |  gel    |   |  SAZ  | 
D4 G2G2 G2G2  | D4 G2G2 G2G2  | D4 G2G2 G2G2  | \
w:   |  SAZ  |   | 
G4 d8  | d4 d8  | d4 f4 e4  | 
w:  Sü zül   |  gü zel   |  sü zül  de   | 
d12  | d2g2 f4 e4  | d8 c4  | d2c2 B4 c4  | d12  | \
w:  gel    |  De li  gön lüm   |  bak  se  |  ni  *  *  is  |  ter    | 
G4 d8  | d4 d8  | d4 f4 e4  | d12  | d2g2 f4 e4  | 
w:  Sü zül   |  gü zel   |  sü zül  de   |  gel    |  De li  gön lüm   | 
d8 c4  | d2c2 B4 c4  | d12  | d4 b8  | b8 a4  | \
w:  bak  se  |  ni  *  *  is  |  ter    |  Se nin  |  le  bü  | 
a8 g4  | g4 f8  | a4 g4 f4  | g2f2 e4 e2d2  | 
w:  tün  yol  |  lar   |  cen *  ne  |  te  *  *  gi  | 
d12  | d12  | d4 b8  | b8 a4  | a8 g4  | g4 f8  | \
w:  der    |   |  Se nin  |  le  bü  |  tün  yol  |  lar   | 
a4 g4 f4  | g2f2 e4 e2d2  | d12  | d12  | f12  | 
w:  cen *  ne  |  te  *  *  gi  |  der    |   |  Aş  | 
g12  | e12  | c12  | B4 d8  | B2A2 G4 ^F4  | G12  | d12  | \
w:  kım  |  sın   |  gel   |  ca nım  |  sın   |  gel    |   | 
d4 f8  | f4 e4 d4  | g8 f4  | e4 d4 c4  | 
w:  Bir  ta  |  nem   |  sev di  |  ğim   | 
B4 d8  | ^f8 g4  | G4 d2d2 d2d2  | d4 d2d2 d2d2  | \
w:  gü ze  |  lim   |  gel SAZ  |   | 
d4 f4 e4  | d12  | f2g2 e2f2 d2e2  | 
w:   |   |   | 
c2d2 B2c2 A2B2  | G4 B4 d4  | G4 z8  | |


